vendor/shopware/storefront/Resources/app/storefront/dist/assets/icon/solid/settings.svg

<svg xmlns="http://www.w3.org/2000/svg" width="16" height="16" viewBox="0 0 16 16">
  <path fill="#758CA3" fill-rule="evenodd" d="M8,10 C9.1045695,10 10,9.1045695 10,8 C10,6.8954305 9.1045695,6 8,6 C6.8954305,6 6,6.8954305 6,8 C6,9.1045695 6.8954305,10 8,10 Z M11.4269289,5.83499571 L10.9924427,5.34562117 C10.6067869,4.91124575 10.1311995,4.56464986 9.5996284,4.33239655 L9,4.07040776 L9,2.28987868 L7,2.28987868 L7,4.07040776 L6.4003716,4.33239655 C5.86880047,4.56464986 5.3932131,4.91124575 5.0075573,5.34562117 L4.57307111,5.8349957 L3.95069129,5.63273586 L2.87960514,5.28465624 L2.26216598,7.18696252 L3.95577266,7.73734775 L4.01868169,8.38982306 C4.0748451,8.97233459 4.25686812,9.52782577 4.54980247,10.0254685 L4.88223346,10.5902088 L4.49711941,11.120425 L3.83588958,12.0307911 L5.45297508,13.2076668 L6.49934783,11.7670452 L7.13825974,11.9071588 C7.41870788,11.9686613 7.70698144,12 8,12 C8.29301856,12 8.58129212,11.9686613 8.86174026,11.9071588 L9.50065217,11.7670452 L9.88504741,12.2962715 L10.5470249,13.2076668 L12.1641104,12.0307911 L11.1177665,10.5902088 L11.4501975,10.0254685 C11.7431319,9.52782577 11.9251549,8.97233459 11.9813183,8.38982306 L12.0442273,7.73734775 L12.6676351,7.53475382 L13.737834,7.18696252 L13.1203949,5.28465624 L11.4269289,5.83499571 Z M11,2.80288815 C11.3631262,3.01287736 11.7032393,3.26041018 12.0147248,3.5410143 L12.5023609,3.38254321 C13.5528689,3.04121246 14.6811771,3.61611423 15.0226045,4.66691966 L15.6400437,6.56922595 C15.9811724,7.61967118 15.4062599,8.74778254 14.3559183,9.0890592 L13.8700388,9.24695944 C13.7828241,9.65923409 13.65258,10.0594442 13.4819714,10.4419493 L13.7821444,10.8552205 C14.4312089,11.7485812 14.2334322,12.998926 13.3406597,13.6481135 L11.723248,14.8252264 C10.8298944,15.4748365 9.57907529,15.2772434 8.92946523,14.3838898 L8.62706109,13.9675473 C8.41970626,13.9891232 8.21047924,14 8,14 C7.78952076,14 7.58029374,13.9891232 7.3729389,13.9675473 L7.07100907,14.3832373 C6.42175941,15.2768528 5.17102008,15.4749504 4.27740458,14.8257007 L4.27642585,14.8249892 L2.65966652,13.6483507 C1.76656777,12.998926 1.5687911,11.7485812 2.21777537,10.855331 L2.51802857,10.4419493 C2.34741996,10.0594442 2.21717589,9.65923409 2.12996115,9.24695943 L1.64413199,9.08907555 C0.593740117,8.74778254 0.0188275704,7.61967118 0.359908055,6.56937467 L0.977395494,4.66691967 C1.31856198,3.61635829 2.44678033,3.04128011 3.4975407,3.38251124 L3.98527523,3.54101431 C4.29676073,3.26041018 4.63687384,3.01287736 5,2.80288815 L5,2.28987868 C5,1.18530918 5.8954305,0.289878679 7,0.289878679 L9,0.289878679 C10.1045695,0.289878679 11,1.18530918 11,2.28987868 L11,2.80288815 Z"/>
</svg>

<svg xmlns="http://www.w3.org/2000/svg" width="16" height="16" viewBox="0 0 16 16"><path fill="#758CA3" fill-rule="evenodd" d="M8 10c1.1046 0 2-.8954 2-2s-.8954-2-2-2-2 .8954-2 2 .8954 2 2 2zm3.427-4.165-.4346-.4894a4.0135 4.0135 0 0 0-1.3928-1.0132L9 4.0704V2.29H7v1.7805l-.5996.262a4.0135 4.0135 0 0 0-1.3928 1.0132l-.4345.4894-.6224-.2023-1.071-.348-.6175 1.9023 1.6936.5503.0629.6525a3.9683 3.9683 0 0 0 .5311 1.6357l.3324.5647-.385.5302-.6613.9104 1.617 1.1769 1.0464-1.4407.639.1402C7.4187 11.9687 7.707 12 8 12c.293 0 .5813-.0313.8617-.0928l.639-.1402.3843.5293.662.9114 1.6171-1.177-1.0463-1.4405.3324-.5647a3.9683 3.9683 0 0 0 .5311-1.6357l.063-.6525.6233-.2025 1.0702-.3478-.6174-1.9023-1.6935.5503zM11 2.8029c.3631.21.7032.4575 1.0147.7381l.4877-.1585c1.0505-.3413 2.1788.2336 2.5202 1.2844l.6174 1.9023c.3412 1.0505-.2337 2.1786-1.284 2.5199l-.486.1579a5.9616 5.9616 0 0 1-.388 1.195l.3001.4132c.6491.8934.4513 2.1437-.4414 2.793l-1.6175 1.177c-.8933.6496-2.1441.452-2.7937-.4413l-.3024-.4164a6.0579 6.0579 0 0 1-1.2542 0l-.3019.4157c-.6492.8937-1.9 1.0918-2.7936.4425l-.001-.0007-1.6167-1.1766c-.8931-.6495-1.091-1.8998-.442-2.793l.3003-.4135a5.9616 5.9616 0 0 1-.388-1.195l-.4859-.1578C.5937 8.7478.0188 7.6197.36 6.5694l.6175-1.9025c.3412-1.0505 1.4694-1.6256 2.5201-1.2844l.4878.1585A6.0157 6.0157 0 0 1 5 2.803V2.29c0-1.1046.8954-2 2-2h2c1.1046 0 2 .8954 2 2v.513z"/></svg>
